;START_OF_HEADER
;HEADER_VERSION:0.1
;FLAVOR:Griffin
;GENERATOR.NAME:Cura_SteamEngine
;GENERATOR.VERSION:3.3.1
;GENERATOR.BUILD_DATE:2018-04-25
;TARGET_MACHINE.NAME:Ultimaker 3
;EXTRUDER_TRAIN.0.INITIAL_TEMPERATURE:210
;EXTRUDER_TRAIN.0.MATERIAL.VOLUME_USED:1562
;EXTRUDER_TRAIN.0.MATERIAL.GUID:506c9f0d-e3aa-4bd4-b2d2-23e2425b1aa9
;EXTRUDER_TRAIN.0.NOZZLE.DIAMETER:0.4
;EXTRUDER_TRAIN.0.NOZZLE.NAME:AA 0.4
;BUILD_PLATE.TYPE:glass
;BUILD_PLATE.INITIAL_TEMPERATURE:60
;PRINT.TIME:1245
;PRINT.SIZE.MIN.X:9
;PRINT.SIZE.MIN.Y:6
;PRINT.SIZE.MIN.Z:0.27
;PRINT.SIZE.MAX.X:148.424
;PRINT.SIZE.MAX.Y:113.735
;PRINT.SIZE.MAX.Z:25.07
;END_OF_HEADER
;Generated with Cura_SteamEngine 3.3.1
T0
M82 ;absolute extrusion mode

G92 E0
M109 S210
G0 F15000 X9 Y6 Z2
G280
G1 F1500 E-6.5
;LAYER_COUNT:125
;LAYER:0
M107
M204 S625
M205 X6 Y6
G0 F4285.7 X87.113 Y99.359 Z0.27
M204 S500
M205 X5 Y5
;TYPE:SKIRT
G1 F1500 E0
G1 F1200 X87.7 Y98.9 E0.01325
G1 X88.332 Y98.507 E0.02648
G1 X89.002 Y98.184 E0.0397
G1 X89.704 Y97.935 E0.05294
G1 X90.428 Y97.762 E0.06617
G1 X91.166 Y97.668 E0.07939
G1 X91.67 Y97.65 E0.08836
G1 X141.329 Y97.65 E0.9711
G1 X142.072 Y97.69 E0.98432
G1 X142.807 Y97.809 E0.99756
G1 X143.525 Y98.007 E1.0108
G1 X144.217 Y98.28 E1.02402
G1 X144.876 Y98.626 E1.03725
G1 X145.494 Y99.041 E1.05048
G1 X146.064 Y99.52 E1.06372
G1 X146.579 Y100.057 E1.07695
G1 X147.034 Y100.646 E1.09018
G1 X147.57 Y101.567 E1.10912
G1 X147.725 Y101.888 E1.11545
G1 X148.012 Y102.574 E1.12867
G1 X148.224 Y103.288 E1.14191
G1 X148.358 Y104.02 E1.15514
G1 X148.408 Y104.623 E1.1659
G1 X148.424 Y105.022 E1.173
G1 X148.414 Y105.767 E1.18624
G1 X148.324 Y106.505 E1.19946
G1 X148.156 Y107.23 E1.21268
G1 X147.91 Y107.933 E1.22592
G1 X147.591 Y108.605 E1.23915
G1 X147.201 Y109.24 E1.25239
G1 X146.746 Y109.828 E1.26561
G1 X146.23 Y110.365 E1.27885
G1 X145.659 Y110.843 E1.29209
G1 X145.041 Y111.257 E1.30531
G1 X144.382 Y111.602 E1.31853
G1 X143.689 Y111.875 E1.33177
G1 X142.971 Y112.072 E1.34501
G1 X142.237 Y112.191 E1.35822
G1 X141.499 Y112.23 E1.37136
G1 X91.499 Y112.222 E2.26016
G1 X90.756 Y112.182 E2.27339
G1 X90.021 Y112.062 E2.28662
G1 X89.303 Y111.865 E2.29986
G1 X88.611 Y111.591 E2.31309
G1 X87.952 Y111.245 E2.32632
G1 X87.334 Y110.83 E2.33955
G1 X86.764 Y110.351 E2.35279
G1 X86.249 Y109.814 E2.36601
G1 X85.794 Y109.225 E2.37924
G1 X85.405 Y108.591 E2.39247
G1 X85.087 Y107.918 E2.4057
G1 X84.842 Y107.215 E2.41893
G1 X84.674 Y106.49 E2.43216
G1 X84.585 Y105.751 E2.44539
G1 X84.573 Y105.098 E2.457
G1 X84.583 Y104.741 E2.46335
G1 X84.643 Y103.999 E2.47658
G1 X84.783 Y103.268 E2.48981
G1 X85.001 Y102.556 E2.50305
G1 X85.192 Y102.087 E2.51205
G1 X85.352 Y101.732 E2.51897
G1 X85.694 Y101.071 E2.5322
G1 X86.105 Y100.451 E2.54543
G1 X86.58 Y99.878 E2.55866
G1 X87.113 Y99.359 E2.57188
M204 S625
M205 X6 Y6
G0 F4285.7 X87.457 Y99.617
M204 S500
M205 X5 Y5
G1 F1200 X88.032 Y99.182 E2.5847
G1 X88.651 Y98.812 E2.59752
G1 X89.308 Y98.514 E2.61034
G1 X89.994 Y98.289 E2.62317
G1 X90.7 Y98.143 E2.63599
G1 X91.67 Y98.07 E2.65328
G1 X141.329 Y98.07 E3.53602
G1 X142.049 Y98.11 E3.54884
G1 X142.761 Y98.229 E3.56167
G1 X143.455 Y98.427 E3.5745
G1 X144.122 Y98.7 E3.58731
G1 X144.756 Y99.045 E3.60014
G1 X145.347 Y99.458 E3.61296
G1 X145.889 Y99.934 E3.62578
G1 X146.375 Y100.467 E3.6386
G1 X146.799 Y101.051 E3.65143
G1 X147.191 Y101.749 E3.66566
G1 X147.346 Y102.07 E3.672
G1 X147.624 Y102.736 E3.68482
G1 X147.825 Y103.429 E3.69765
G1 X147.949 Y104.14 E3.71048
G1 X147.989 Y104.64 E3.7194
G1 X148.005 Y105.039 E3.72649
G1 X147.994 Y105.76 E3.73931
G1 X147.903 Y106.476 E3.75214
G1 X147.733 Y107.177 E3.76496
G1 X147.487 Y107.855 E3.77779
G1 X147.168 Y108.502 E3.79061
G1 X146.779 Y109.11 E3.80344
G1 X146.325 Y109.67 E3.81625
G1 X145.812 Y110.177 E3.82908
G1 X145.246 Y110.624 E3.8419
G1 X144.634 Y111.006 E3.85472
G1 X143.983 Y111.318 E3.86755
G1 X143.302 Y111.556 E3.88038
G1 X142.599 Y111.717 E3.8932
G1 X141.882 Y111.799 E3.90602
G1 X141.499 Y111.81 E3.91284
G1 X91.499 Y111.802 E4.80163
G1 X90.779 Y111.762 E4.81445
G1 X90.067 Y111.642 E4.82729
G1 X89.373 Y111.445 E4.84011
G1 X88.706 Y111.172 E4.85292
G1 X88.072 Y110.827 E4.86575
G1 X87.481 Y110.413 E4.87858
G1 X86.939 Y109.937 E4.8914
G1 X86.453 Y109.404 E4.90422
G1 X86.029 Y108.82 E4.91705
G1 X85.672 Y108.193 E4.92988
G1 X85.387 Y107.531 E4.94269
G1 X85.177 Y106.841 E4.95551
G1 X85.044 Y106.132 E4.96833
G1 X84.993 Y105.11 E4.98652
G1 X85.003 Y104.753 E4.99287
G1 X85.063 Y104.034 E5.0057
G1 X85.202 Y103.326 E5.01852
G1 X85.419 Y102.638 E5.03135
G1 X85.575 Y102.26 E5.03862
G1 X85.735 Y101.905 E5.04554
G1 X86.067 Y101.265 E5.05836
G1 X86.469 Y100.665 E5.07119
G1 X86.934 Y100.114 E5.08401
G1 X87.457 Y99.617 E5.09683
M204 S625
M205 X6 Y6
G0 F4285.7 X87.799 Y99.879
M204 S500
M205 X5 Y5
G1 F1200 X88.362 Y99.467 E5.10924
G1 X88.969 Y99.122 E5.12165
G1 X89.611 Y98.849 E5.13405
G1 X90.28 Y98.651 E5.14645
G1 X90.967 Y98.531 E5.15885
G1 X91.67 Y98.49 E5.17136
G1 X141.329 Y98.49 E6.0541
G1 X142.026 Y98.53 E6.06651
G1 X142.713 Y98.649 E6.07891
G1 X143.382 Y98.847 E6.09131
G1 X144.025 Y99.119 E6.10372
G1 X144.631 Y99.463 E6.11611
G1 X145.195 Y99.875 E6.12852
G1 X145.708 Y100.348 E6.14093
G1 X146.163 Y100.876 E6.15332
G1 X146.555 Y101.453 E6.16571
G1 X146.813 Y101.932 E6.17539
G1 X146.968 Y102.253 E6.18172
G1 X147.235 Y102.898 E6.19413
G1 X147.426 Y103.568 E6.20652
G1 X147.54 Y104.257 E6.21893
G1 X147.569 Y104.657 E6.22606
G1 X147.585 Y105.056 E6.23316
G1 X147.573 Y105.754 E6.24557
G1 X147.481 Y106.445 E6.25796
G1 X147.311 Y107.122 E6.27037
G1 X147.065 Y107.775 E6.28277
G1 X146.745 Y108.395 E6.29517
G1 X146.357 Y108.974 E6.30756
G1 X145.904 Y109.506 E6.31998
G1 X145.395 Y109.982 E6.33237
G1 X144.833 Y110.397 E6.34479
G1 X144.229 Y110.745 E6.35718
G1 X143.588 Y111.021 E6.36959
G1 X142.92 Y111.222 E6.38199
G1 X142.233 Y111.346 E6.3944
G1 X141.499 Y111.39 E6.40747
G1 X91.499 Y111.382 E7.29627
G1 X90.802 Y111.342 E7.30868
G1 X90.115 Y111.222 E7.32107
G1 X89.446 Y111.025 E7.33347
G1 X88.804 Y110.753 E7.34586
G1 X88.197 Y110.408 E7.35828
G1 X87.633 Y109.997 E7.37068
G1 X87.12 Y109.524 E7.38308
G1 X86.665 Y108.995 E7.39549
G1 X86.273 Y108.418 E7.40789
G1 X85.95 Y107.799 E7.4203
G1 X85.7 Y107.148 E7.4327
G1 X85.526 Y106.473 E7.44509
G1 X85.43 Y105.781 E7.45751
G1 X85.412 Y105.121 E7.46924
G1 X85.422 Y104.764 E7.47559
G1 X85.482 Y104.069 E7.48799
G1 X85.62 Y103.385 E7.50039
G1 X85.958 Y102.433 E7.51835
G1 X86.118 Y102.078 E7.52527
G1 X86.441 Y101.459 E7.53769
G1 X86.832 Y100.881 E7.55009
G1 X87.287 Y100.352 E7.56249
G1 X87.799 Y99.879 E7.57488
M204 S625
M205 X6 Y6
G0 F4285.7 X88.139 Y100.143
M204 S500
M205 X5 Y5
G1 F1200 X88.69 Y99.756 E7.58685
G1 X89.283 Y99.437 E7.59882
G1 X89.909 Y99.19 E7.61078
G1 X90.56 Y99.02 E7.62275
G1 X91.227 Y98.927 E7.63472
G1 X91.67 Y98.91 E7.6426
G1 X141.329 Y98.91 E8.52533
G1 X142.001 Y98.95 E8.5373
G1 X142.664 Y99.069 E8.54927
G1 X143.307 Y99.266 E8.56123
G1 X143.923 Y99.538 E8.5732
G1 X144.502 Y99.881 E8.58516
G1 X145.037 Y100.29 E8.59713
G1 X145.519 Y100.76 E8.6091
G1 X145.942 Y101.284 E8.62107
G1 X146.435 Y102.115 E8.63825
G1 X146.59 Y102.436 E8.64458
G1 X146.846 Y103.058 E8.65654
G1 X147.027 Y103.707 E8.66852
G1 X147.149 Y104.674 E8.68584
G1 X147.165 Y105.073 E8.69294
G1 X147.152 Y105.746 E8.70491
G1 X147.06 Y106.413 E8.71687
G1 X146.889 Y107.064 E8.72884
G1 X146.642 Y107.69 E8.7408
G1 X146.322 Y108.283 E8.75278
G1 X145.935 Y108.833 E8.76473
G1 X145.485 Y109.334 E8.77671
G1 X144.978 Y109.778 E8.78868
G1 X144.423 Y110.158 E8.80064
G1 X143.827 Y110.471 E8.81261
G1 X143.198 Y110.71 E8.82457
G1 X142.544 Y110.873 E8.83655
G1 X141.877 Y110.957 E8.8485
G1 X141.499 Y110.97 E8.85522
G1 X91.499 Y110.962 E9.74402
G1 X90.827 Y110.922 E9.75599
G1 X90.165 Y110.802 E9.76795
G1 X89.521 Y110.605 E9.77992
G1 X88.905 Y110.333 E9.79189
G1 X88.326 Y109.99 E9.80385
G1 X87.791 Y109.581 E9.81582
G1 X87.309 Y109.111 E9.82779
G1 X86.886 Y108.588 E9.83975
G1 X86.528 Y108.017 E9.85173
G1 X86.24 Y107.409 E9.86369
G1 X86.026 Y106.771 E9.87565
G1 X85.89 Y106.111 E9.88763
G1 X85.832 Y105.133 E9.90504
G1 X85.842 Y104.776 E9.91139
G1 X85.901 Y104.106 E9.92335
G1 X86.039 Y103.447 E9.93532
G1 X86.341 Y102.605 E9.95122
G1 X86.501 Y102.25 E9.95814
G1 X86.813 Y101.654 E9.9701
G1 X87.194 Y101.099 E9.98206
G1 X87.638 Y100.593 E9.99403
G1 X88.139 Y100.143 E10.006
M204 S625
M205 X6 Y6
G0 F4285.7 X87.989 Y100.837
M204 S500
M205 X5 Y5
G1 F1200 X88.478 Y100.412 E10.01752
G1 X89.016 Y100.05 E10.02904
G1 X89.594 Y99.758 E10.04056
G1 X90.203 Y99.539 E10.05206
G1 X90.835 Y99.397 E10.06357
G1 X91.67 Y99.33 E10.07846
G1 X141.329 Y99.33 E10.9612
G1 X141.976 Y99.37 E10.97273
G1 X142.612 Y99.489 E10.98423
G1 X143.229 Y99.686 E10.99574
G1 X143.818 Y99.957 E11.00727
G1 X144.368 Y100.299 E11.01878
G1 X144.872 Y100.706 E11.03029
G1 X145.322 Y101.172 E11.04181
G1 X145.711 Y101.689 E11.05331
G1 X146.057 Y102.297 E11.06575
G1 X146.212 Y102.618 E11.07208
G1 X146.457 Y103.218 E11.0836
G1 X146.626 Y103.843 E11.09511
G1 X146.73 Y104.691 E11.1103
G1 X146.746 Y105.09 E11.1174
G1 X146.732 Y105.737 E11.1289
G1 X146.638 Y106.378 E11.14042
G1 X146.466 Y107.003 E11.15194
G1 X146.219 Y107.601 E11.16344
G1 X145.899 Y108.165 E11.17497
G1 X145.513 Y108.685 E11.18648
G1 X145.066 Y109.153 E11.19798
G1 X144.564 Y109.563 E11.20951
G1 X144.016 Y109.908 E11.22102
G1 X143.429 Y110.183 E11.23254
G1 X142.813 Y110.383 E11.24405
G1 X142.177 Y110.506 E11.25557
G1 X141.499 Y110.55 E11.26764
G1 X91.499 Y110.542 E12.15644
G1 X90.853 Y110.502 E12.16795
G1 X90.216 Y110.383 E12.17947
G1 X89.599 Y110.186 E12.19098
G1 X89.011 Y109.914 E12.2025
G1 X88.46 Y109.573 E12.21402
G1 X87.956 Y109.166 E12.22553
G1 X87.506 Y108.7 E12.23705
G1 X87.117 Y108.182 E12.24856
G1 X86.795 Y107.62 E12.26008
G1 X86.544 Y107.023 E12.27159
G1 X86.368 Y106.4 E12.2831
G1 X86.271 Y105.759 E12.29462
G1 X86.252 Y105.145 E12.30554
G1 X86.262 Y104.788 E12.31189
G1 X86.32 Y104.143 E12.3234
G1 X86.457 Y103.51 E12.33491
G1 X86.724 Y102.778 E12.34876
G1 X86.884 Y102.423 E12.35568
G1 X87.186 Y101.85 E12.3672
G1 X87.556 Y101.318 E12.37872
G1 X87.989 Y100.837 E12.39022
M204 S625
M205 X6 Y6
G0 F4285.7 X88.338 Y101.083
M204 S500
M205 X5 Y5
G1 F1200 X88.815 Y100.684 E12.40128
G1 X89.338 Y100.35 E12.41231
G1 X89.901 Y100.086 E12.42336
G1 X90.492 Y99.896 E12.4344
G1 X91.103 Y99.783 E12.44544
G1 X91.67 Y99.75 E12.45554
G1 X141.329 Y99.75 E13.33827
G1 X141.949 Y99.79 E13.34932
G1 X142.559 Y99.909 E13.36037
G1 X143.148 Y100.106 E13.37141
G1 X143.707 Y100.376 E13.38244
G1 X144.227 Y100.716 E13.39349
G1 X144.699 Y101.12 E13.40453
G1 X145.116 Y101.582 E13.41559
G1 X145.469 Y102.092 E13.42662
G1 X145.678 Y102.48 E13.43445
G1 X145.833 Y102.801 E13.44079
G1 X146.067 Y103.376 E13.45182
G1 X146.225 Y103.977 E13.46287
G1 X146.31 Y104.707 E13.47593
G1 X146.326 Y105.106 E13.48303
G1 X146.311 Y105.728 E13.49409
G1 X146.216 Y106.342 E13.50514
G1 X146.044 Y106.938 E13.51616
G1 X145.796 Y107.508 E13.52721
G1 X145.477 Y108.041 E13.53826
G1 X145.092 Y108.529 E13.5493
G1 X144.648 Y108.963 E13.56034
G1 X144.151 Y109.337 E13.5714
G1 X143.611 Y109.644 E13.58244
G1 X143.036 Y109.879 E13.59348
G1 X142.436 Y110.039 E13.60452
G1 X141.82 Y110.119 E13.61556
G1 X141.499 Y110.13 E13.62127
G1 X91.499 Y110.122 E14.51007
G1 X90.879 Y110.082 E14.52111
G1 X90.27 Y109.963 E14.53214
G1 X89.68 Y109.766 E14.5432
G1 X89.121 Y109.495 E14.55424
G1 X88.601 Y109.155 E14.56529
G1 X88.129 Y108.751 E14.57633
G1 X87.713 Y108.29 E14.58737
G1 X87.359 Y107.779 E14.59842
G1 X87.074 Y107.227 E14.60946
G1 X86.863 Y106.643 E14.6205
G1 X86.728 Y106.036 E14.63156
G1 X86.672 Y105.157 E14.64721
G1 X86.682 Y104.8 E14.65356
G1 X86.739 Y104.181 E14.66461
G1 X86.875 Y103.575 E14.67565
G1 X87.107 Y102.95 E14.6875
G1 X87.267 Y102.595 E14.69442
G1 X87.558 Y102.047 E14.70545
G1 X87.917 Y101.54 E14.7165
G1 X88.338 Y101.083 E14.72754
M204 S625
M205 X6 Y6
G0 F4285.7 X88.686 Y101.333
M204 S500
M205 X5 Y5
G1 F1200 X89.149 Y100.962 E14.73809
G1 X89.658 Y100.656 E14.74864
G1 X90.203 Y100.421 E14.7592
G1 X90.775 Y100.262 E14.76975
G1 X91.363 Y100.181 E14.7803
G1 X91.67 Y100.17 E14.78576
G1 X141.329 Y100.17 E15.6685
G1 X141.921 Y100.21 E15.67904
G1 X142.503 Y100.329 E15.6896
G1 X143.063 Y100.525 E15.70015
G1 X143.592 Y100.795 E15.71071
G1 X144.08 Y101.133 E15.72126
G1 X144.518 Y101.534 E15.73182
G1 X144.898 Y101.99 E15.74237
G1 X145.3 Y102.662 E15.75629
G1 X145.455 Y102.983 E15.76262
G1 X145.677 Y103.534 E15.77318
G1 X145.822 Y104.11 E15.78374
G1 X145.89 Y104.724 E15.79472
G1 X145.906 Y105.123 E15.80182
G1 X145.89 Y105.717 E15.81238
G1 X145.795 Y106.303 E15.82294
G1 X145.621 Y106.87 E15.83348
G1 X145.373 Y107.41 E15.84404
G1 X145.054 Y107.911 E15.8546
G1 X144.672 Y108.364 E15.86513
G1 X144.231 Y108.762 E15.87569
G1 X143.741 Y109.098 E15.88626
G1 X143.211 Y109.365 E15.8968
G1 X142.65 Y109.557 E15.90734
G1 X142.067 Y109.673 E15.91791
G1 X141.499 Y109.71 E15.92803
G1 X91.499 Y109.702 E16.81683
G1 X90.907 Y109.662 E16.82738
G1 X90.325 Y109.543 E16.83794
G1 X89.765 Y109.346 E16.84849
G1 X89.236 Y109.077 E16.85904
G1 X88.749 Y108.738 E16.86959
G1 X88.311 Y108.338 E16.88013
G1 X87.931 Y107.882 E16.89068
G1 X87.615 Y107.379 E16.90124
G1 X87.37 Y106.838 E16.9118
G1 X87.2 Y106.269 E16.92235
G1 X87.107 Y105.683 E16.9329
G1 X87.092 Y105.169 E16.94204
G1 X87.102 Y104.812 E16.94839
G1 X87.158 Y104.221 E16.95894
G1 X87.294 Y103.643 E16.9695
G1 X87.489 Y103.123 E16.97937
G1 X87.649 Y102.768 E16.98629
G1 X87.929 Y102.244 E16.99685
G1 X88.277 Y101.763 E17.00741
G1 X88.686 Y101.333 E17.01795
M204 S625
M205 X6 Y6
G0 F4285.7 X89.032 Y101.587
M204 S500
M205 X5 Y5
G1 F1200 X89.481 Y101.244 E17.028
G1 X89.973 Y100.969 E17.03802
G1 X90.5 Y100.765 E17.04806
G1 X91.05 Y100.638 E17.0581
G1 X91.67 Y100.59 E17.06915
G1 X141.329 Y100.59 E17.95189
G1 X141.892 Y100.63 E17.96192
G1 X142.444 Y100.749 E17.97196
G1 X142.974 Y100.945 E17.982
G1 X143.47 Y101.213 E17.99203
G1 X143.924 Y101.549 E18.00207
G1 X144.326 Y101.946 E18.01211
G1 X144.668 Y102.395 E18.02214
G1 X144.922 Y102.845 E18.03133
G1 X145.077 Y103.166 E18.03766
G1 X145.286 Y103.691 E18.04771
G1 X145.419 Y104.239 E18.05773
G1 X145.471 Y104.741 E18.0667
G1 X145.487 Y105.14 E18.0738
G1 X145.469 Y105.704 E18.08383
G1 X145.373 Y106.261 E18.09388
G1 X145.198 Y106.798 E18.10392
G1 X144.95 Y107.305 E18.11395
G1 X144.632 Y107.772 E18.124
G1 X144.252 Y108.189 E18.13403
G1 X143.817 Y108.549 E18.14406
G1 X143.335 Y108.843 E18.1541
G1 X142.816 Y109.067 E18.16415
G1 X142.272 Y109.215 E18.17417
G1 X141.499 Y109.29 E18.18797
G1 X91.499 Y109.282 E19.07677
G1 X90.936 Y109.242 E19.08681
G1 X90.384 Y109.123 E19.09684
G1 X89.855 Y108.927 E19.10687
G1 X89.358 Y108.658 E19.11692
G1 X88.904 Y108.322 E19.12696
G1 X88.503 Y107.926 E19.13698
G1 X88.161 Y107.476 E19.14702
G1 X87.886 Y106.983 E19.15706
G1 X87.684 Y106.456 E19.16709
G1 X87.557 Y105.905 E19.17714
G1 X87.512 Y105.18 E19.19005
G1 X87.522 Y104.823 E19.1964
G1 X87.577 Y104.261 E19.20644
G1 X87.712 Y103.713 E19.21647
G1 X87.872 Y103.296 E19.22441
G1 X88.032 Y102.941 E19.23133
G1 X88.3 Y102.443 E19.24139
G1 X88.636 Y101.989 E19.25143
G1 X89.032 Y101.587 E19.26146
M204 S625
M205 X6 Y6
G0 F4285.7 X89.375 Y101.845
M204 S500
M205 X5 Y5
G1 F1200 X89.809 Y101.534 E19.27095
G1 X90.284 Y101.29 E19.28044
G1 X90.79 Y101.12 E19.28993
G1 X91.316 Y101.028 E19.29942
G1 X91.67 Y101.01 E19.30572
G1 X141.329 Y101.01 E20.18846
G1 X141.862 Y101.05 E20.19796
G1 X142.382 Y101.169 E20.20744
G1 X142.879 Y101.364 E20.21693
G1 X143.342 Y101.631 E20.22643
G1 X143.759 Y101.965 E20.23593
G1 X144.122 Y102.356 E20.24542
G1 X144.544 Y103.028 E20.25952
G1 X144.699 Y103.349 E20.26586
G1 X144.894 Y103.846 E20.27535
G1 X145.014 Y104.366 E20.28483
G1 X145.051 Y104.758 E20.29183
G1 X145.067 Y105.157 E20.29893
G1 X145.049 Y105.691 E20.30843
G1 X144.951 Y106.216 E20.31792
G1 X144.775 Y106.72 E20.32741
G1 X144.527 Y107.193 E20.33691
G1 X144.211 Y107.623 E20.34639
G1 X143.834 Y108.002 E20.35589
G1 X143.405 Y108.319 E20.36538
G1 X142.933 Y108.57 E20.37488
G1 X142.429 Y108.747 E20.38438
G1 X141.905 Y108.847 E20.39386
G1 X141.499 Y108.87 E20.40109
G1 X91.499 Y108.862 E21.28989
G1 X90.967 Y108.822 E21.29937
