;START_OF_HEADER
;HEADER_VERSION:0.1
;FLAVOR:Griffin
;GENERATOR.NAME:Cura_SteamEngine
;GENERATOR.VERSION:3.3.1
;GENERATOR.BUILD_DATE:2018-04-25
;TARGET_MACHINE.NAME:Ultimaker 3
;EXTRUDER_TRAIN.0.INITIAL_TEMPERATURE:210
;EXTRUDER_TRAIN.0.MATERIAL.VOLUME_USED:7727
;EXTRUDER_TRAIN.0.MATERIAL.GUID:506c9f0d-e3aa-4bd4-b2d2-23e2425b1aa9
;EXTRUDER_TRAIN.0.NOZZLE.DIAMETER:0.4
;EXTRUDER_TRAIN.0.NOZZLE.NAME:AA 0.4
;BUILD_PLATE.TYPE:glass
;BUILD_PLATE.INITIAL_TEMPERATURE:60
;PRINT.TIME:3680
;PRINT.SIZE.MIN.X:9
;PRINT.SIZE.MIN.Y:6
;PRINT.SIZE.MIN.Z:0.27
;PRINT.SIZE.MAX.X:128.93
;PRINT.SIZE.MAX.Y:146.43
;PRINT.SIZE.MAX.Z:23.07
;END_OF_HEADER
;Generated with Cura_SteamEngine 3.3.1
T0
M82 ;absolute extrusion mode

G92 E0
M109 S210
G0 F15000 X9 Y6 Z2
G280
G1 F1500 E-6.5
;LAYER_COUNT:115
;LAYER:0
M107
M204 S625
M205 X6 Y6
G0 F4285.7 X42.928 Y61.975 Z0.27
M204 S500
M205 X5 Y5
;TYPE:SKIRT
G1 F1500 E0
G1 F1200 X43.562 Y61.586 E0.01322
G1 X44.235 Y61.267 E0.02646
G1 X44.938 Y61.022 E0.03969
G1 X45.663 Y60.854 E0.05292
G1 X46.402 Y60.765 E0.06616
G1 X46.862 Y60.75 E0.07434
G1 X57.862 Y60.75 E0.26987
G1 X58.605 Y60.79 E0.2831
G1 X59.34 Y60.909 E0.29633
G1 X60.058 Y61.107 E0.30957
G1 X60.75 Y61.38 E0.3228
G1 X61.409 Y61.726 E0.33603
G1 X62.027 Y62.141 E0.34926
G1 X62.597 Y62.62 E0.3625
G1 X63.112 Y63.157 E0.37572
G1 X63.567 Y63.746 E0.38895
G1 X63.956 Y64.38 E0.40217
G1 X64.275 Y65.053 E0.41541
G1 X64.52 Y65.756 E0.42865
G1 X64.688 Y66.481 E0.44188
G1 X64.777 Y67.22 E0.45511
G1 X64.792 Y67.68 E0.46329
G1 X64.792 Y131.68 E1.60095
G1 X64.752 Y132.423 E1.61418
G1 X64.633 Y133.158 E1.62741
G1 X64.435 Y133.876 E1.64065
G1 X64.162 Y134.568 E1.65388
G1 X63.816 Y135.227 E1.66711
G1 X63.401 Y135.845 E1.68034
G1 X62.922 Y136.415 E1.69358
G1 X62.385 Y136.93 E1.7068
G1 X61.796 Y137.385 E1.72003
G1 X61.162 Y137.774 E1.73325
G1 X60.489 Y138.093 E1.74649
G1 X59.786 Y138.338 E1.75973
G1 X59.061 Y138.506 E1.77296
G1 X58.322 Y138.595 E1.78619
G1 X57.862 Y138.61 E1.79437
G1 X46.862 Y138.61 E1.9899
G1 X46.119 Y138.57 E2.00313
G1 X45.384 Y138.451 E2.01637
G1 X44.666 Y138.253 E2.02961
G1 X43.974 Y137.98 E2.04283
G1 X43.315 Y137.634 E2.05606
G1 X42.697 Y137.219 E2.06929
G1 X42.127 Y136.74 E2.08253
G1 X41.612 Y136.203 E2.09575
G1 X41.157 Y135.614 E2.10898
G1 X40.768 Y134.98 E2.12221
G1 X40.449 Y134.307 E2.13545
G1 X40.204 Y133.604 E2.14868
G1 X40.036 Y132.879 E2.16191
G1 X39.947 Y132.14 E2.17514
G1 X39.932 Y131.68 E2.18332
G1 X39.932 Y67.68 E3.32098
G1 X39.972 Y66.937 E3.33421
G1 X40.091 Y66.202 E3.34745
G1 X40.289 Y65.484 E3.36068
G1 X40.562 Y64.792 E3.37391
G1 X40.908 Y64.133 E3.38714
G1 X41.323 Y63.515 E3.40037
G1 X41.802 Y62.945 E3.41361
G1 X42.339 Y62.43 E3.42683
G1 X42.928 Y61.975 E3.44006
M204 S625
M205 X6 Y6
G0 F4285.7 X43.333 Y62.21
M204 S500
M205 X5 Y5
G1 F1200 X43.96 Y61.853 E3.45289
G1 X44.622 Y61.567 E3.46571
G1 X45.312 Y61.357 E3.47853
G1 X46.021 Y61.225 E3.49135
G1 X46.862 Y61.17 E3.50633
G1 X57.862 Y61.17 E3.70187
G1 X58.582 Y61.21 E3.71468
G1 X59.294 Y61.329 E3.72752
G1 X59.988 Y61.527 E3.74034
G1 X60.655 Y61.8 E3.75316
G1 X61.289 Y62.145 E3.76599
G1 X61.88 Y62.558 E3.7788
G1 X62.422 Y63.034 E3.79163
G1 X62.908 Y63.567 E3.80445
G1 X63.332 Y64.151 E3.81728
G1 X63.689 Y64.778 E3.8301
G1 X63.975 Y65.44 E3.84292
G1 X64.185 Y66.13 E3.85574
G1 X64.317 Y66.839 E3.86856
G1 X64.372 Y67.68 E3.88354
G1 X64.372 Y131.68 E5.02121
G1 X64.332 Y132.4 E5.03402
G1 X64.213 Y133.112 E5.04686
G1 X64.015 Y133.806 E5.05968
G1 X63.742 Y134.473 E5.0725
G1 X63.397 Y135.107 E5.08533
G1 X62.984 Y135.698 E5.09814
G1 X62.508 Y136.24 E5.11097
G1 X61.975 Y136.726 E5.12379
G1 X61.391 Y137.15 E5.13662
G1 X60.764 Y137.507 E5.14944
G1 X60.102 Y137.793 E5.16226
G1 X59.412 Y138.003 E5.17508
G1 X58.703 Y138.135 E5.1879
G1 X57.862 Y138.19 E5.20288
G1 X46.862 Y138.19 E5.39842
G1 X46.142 Y138.15 E5.41124
G1 X45.43 Y138.031 E5.42407
G1 X44.736 Y137.833 E5.4369
G1 X44.069 Y137.56 E5.44971
G1 X43.435 Y137.215 E5.46254
G1 X42.844 Y136.802 E5.47536
G1 X42.302 Y136.326 E5.48818
G1 X41.816 Y135.793 E5.501
G1 X41.392 Y135.209 E5.51383
G1 X41.035 Y134.582 E5.52666
G1 X40.749 Y133.92 E5.53947
G1 X40.539 Y133.23 E5.5523
G1 X40.407 Y132.521 E5.56512
G1 X40.352 Y131.68 E5.5801
G1 X40.352 Y67.68 E6.71776
G1 X40.392 Y66.96 E6.73058
G1 X40.511 Y66.248 E6.74341
G1 X40.709 Y65.554 E6.75624
G1 X40.982 Y64.887 E6.76905
G1 X41.327 Y64.253 E6.78188
G1 X41.74 Y63.662 E6.7947
G1 X42.216 Y63.12 E6.80752
G1 X42.749 Y62.634 E6.82034
G1 X43.333 Y62.21 E6.83317
M204 S625
M205 X6 Y6
G0 F4285.7 X43.158 Y62.846
M204 S500
M205 X5 Y5
G1 F1200 X43.735 Y62.454 E6.84557
G1 X44.354 Y62.131 E6.85798
G1 X45.005 Y61.88 E6.87038
G1 X45.681 Y61.706 E6.88279
G1 X46.372 Y61.61 E6.89519
G1 X46.862 Y61.59 E6.90391
G1 X57.862 Y61.59 E7.09945
G1 X58.559 Y61.63 E7.11186
G1 X59.246 Y61.749 E7.12425
G1 X59.915 Y61.947 E7.13665
G1 X60.558 Y62.219 E7.14906
G1 X61.164 Y62.563 E7.16145
G1 X61.728 Y62.975 E7.17387
G1 X62.241 Y63.448 E7.18627
G1 X62.696 Y63.976 E7.19866
G1 X63.088 Y64.553 E7.21106
G1 X63.411 Y65.172 E7.22347
G1 X63.662 Y65.823 E7.23587
G1 X63.836 Y66.499 E7.24828
G1 X63.932 Y67.19 E7.26068
G1 X63.952 Y67.68 E7.2694
G1 X63.952 Y131.68 E8.40706
G1 X63.912 Y132.377 E8.41947
G1 X63.793 Y133.064 E8.43187
G1 X63.595 Y133.733 E8.44427
G1 X63.323 Y134.376 E8.45668
G1 X62.979 Y134.982 E8.46907
G1 X62.567 Y135.546 E8.48148
G1 X62.094 Y136.059 E8.49389
G1 X61.566 Y136.514 E8.50628
G1 X60.989 Y136.906 E8.51867
G1 X60.37 Y137.229 E8.53109
G1 X59.719 Y137.48 E8.54349
G1 X59.043 Y137.654 E8.5559
G1 X58.352 Y137.75 E8.5683
G1 X57.862 Y137.77 E8.57702
G1 X46.862 Y137.77 E8.77255
G1 X46.165 Y137.73 E8.78496
G1 X45.478 Y137.611 E8.79736
G1 X44.809 Y137.413 E8.80976
G1 X44.166 Y137.141 E8.82217
G1 X43.56 Y136.797 E8.83455
G1 X42.996 Y136.385 E8.84697
G1 X42.483 Y135.912 E8.85937
G1 X42.028 Y135.384 E8.87176
G1 X41.636 Y134.807 E8.88416
G1 X41.313 Y134.188 E8.89658
G1 X41.062 Y133.537 E8.90898
G1 X40.888 Y132.861 E8.92139
G1 X40.792 Y132.17 E8.93379
G1 X40.772 Y131.68 E8.9425
G1 X40.772 Y67.68 E10.08017
G1 X40.812 Y66.983 E10.09258
G1 X40.931 Y66.296 E10.10497
G1 X41.129 Y65.627 E10.11737
G1 X41.401 Y64.984 E10.12978
G1 X41.745 Y64.378 E10.14217
G1 X42.157 Y63.814 E10.15459
G1 X42.63 Y63.301 E10.16699
G1 X43.158 Y62.846 E10.17938
M204 S625
M205 X6 Y6
G0 F4285.7 X43.566 Y63.067
M204 S500
M205 X5 Y5
G1 F1200 X44.136 Y62.708 E10.19135
G1 X44.744 Y62.42 E10.20331
G1 X45.382 Y62.206 E10.21528
G1 X46.042 Y62.07 E10.22725
G1 X46.862 Y62.01 E10.24187
G1 X57.862 Y62.01 E10.43741
G1 X58.534 Y62.05 E10.44937
G1 X59.197 Y62.169 E10.46135
G1 X59.84 Y62.366 E10.4733
G1 X60.456 Y62.638 E10.48527
G1 X61.035 Y62.981 E10.49723
G1 X61.57 Y63.39 E10.5092
G1 X62.052 Y63.86 E10.52117
G1 X62.475 Y64.384 E10.53314
G1 X62.834 Y64.954 E10.54512
G1 X63.122 Y65.562 E10.55708
G1 X63.336 Y66.2 E10.56904
G1 X63.472 Y66.86 E10.58102
G1 X63.532 Y67.68 E10.59563
G1 X63.532 Y131.68 E11.73329
G1 X63.492 Y132.352 E11.74526
G1 X63.373 Y133.015 E11.75723
G1 X63.176 Y133.658 E11.76919
G1 X62.904 Y134.274 E11.78116
G1 X62.561 Y134.853 E11.79312
G1 X62.152 Y135.388 E11.80509
G1 X61.682 Y135.87 E11.81706
G1 X61.158 Y136.293 E11.82903
G1 X60.588 Y136.652 E11.841
G1 X59.98 Y136.94 E11.85296
G1 X59.342 Y137.154 E11.86493
G1 X58.682 Y137.29 E11.8769
G1 X57.862 Y137.35 E11.89152
G1 X46.862 Y137.35 E12.08705
G1 X46.19 Y137.31 E12.09902
G1 X45.527 Y137.191 E12.111
G1 X44.884 Y136.994 E12.12295
G1 X44.268 Y136.722 E12.13492
G1 X43.689 Y136.379 E12.14688
G1 X43.154 Y135.97 E12.15885
G1 X42.672 Y135.5 E12.17082
G1 X42.249 Y134.976 E12.18279
G1 X41.89 Y134.406 E12.19477
G1 X41.602 Y133.798 E12.20672
G1 X41.388 Y133.16 E12.21869
G1 X41.252 Y132.5 E12.23067
G1 X41.192 Y131.68 E12.24528
G1 X41.192 Y67.68 E13.38294
G1 X41.232 Y67.008 E13.39491
G1 X41.351 Y66.345 E13.40688
G1 X41.548 Y65.702 E13.41884
G1 X41.82 Y65.086 E13.43081
G1 X42.163 Y64.507 E13.44277
G1 X42.572 Y63.972 E13.45474
G1 X43.042 Y63.49 E13.46671
G1 X43.566 Y63.067 E13.47868
M204 S625
M205 X6 Y6
G0 F4285.7 X43.971 Y63.298
M204 S500
M205 X5 Y5
G1 F1200 X44.533 Y62.975 E13.4902
G1 X45.13 Y62.724 E13.50171
G1 X45.754 Y62.548 E13.51324
G1 X46.394 Y62.451 E13.52475
G1 X46.862 Y62.43 E13.53307
G1 X57.862 Y62.43 E13.72861
G1 X58.509 Y62.47 E13.74013
G1 X59.145 Y62.589 E13.75163
G1 X59.762 Y62.786 E13.76315
G1 X60.351 Y63.057 E13.77467
G1 X60.901 Y63.399 E13.78618
G1 X61.405 Y63.806 E13.7977
G1 X61.855 Y64.272 E13.80922
G1 X62.244 Y64.789 E13.82072
G1 X62.567 Y65.351 E13.83224
G1 X62.818 Y65.948 E13.84375
G1 X62.994 Y66.572 E13.85528
G1 X63.091 Y67.212 E13.86678
G1 X63.112 Y67.68 E13.87511
G1 X63.112 Y131.68 E15.01277
G1 X63.072 Y132.327 E15.0243
G1 X62.953 Y132.963 E15.0358
G1 X62.756 Y133.58 E15.04731
G1 X62.485 Y134.169 E15.05884
G1 X62.143 Y134.719 E15.07035
G1 X61.736 Y135.223 E15.08186
G1 X61.27 Y135.673 E15.09338
G1 X60.753 Y136.062 E15.10488
G1 X60.191 Y136.385 E15.1164
G1 X59.594 Y136.636 E15.12792
G1 X58.97 Y136.812 E15.13944
G1 X58.33 Y136.909 E15.15095
G1 X57.862 Y136.93 E15.15927
G1 X46.862 Y136.93 E15.35481
G1 X46.215 Y136.89 E15.36633
G1 X45.579 Y136.771 E15.37783
G1 X44.962 Y136.574 E15.38935
G1 X44.373 Y136.303 E15.40087
G1 X43.823 Y135.961 E15.41239
G1 X43.319 Y135.554 E15.4239
G1 X42.869 Y135.088 E15.43542
G1 X42.48 Y134.571 E15.44692
G1 X42.157 Y134.009 E15.45844
G1 X41.906 Y133.412 E15.46995
G1 X41.73 Y132.788 E15.48148
G1 X41.633 Y132.148 E15.49298
G1 X41.612 Y131.68 E15.50131
G1 X41.612 Y67.68 E16.63897
G1 X41.652 Y67.033 E16.6505
G1 X41.771 Y66.397 E16.662
G1 X41.968 Y65.78 E16.67351
G1 X42.239 Y65.191 E16.68504
G1 X42.581 Y64.641 E16.69655
G1 X42.988 Y64.137 E16.70807
G1 X43.454 Y63.687 E16.71958
G1 X43.971 Y63.298 E16.73108
M204 S625
M205 X6 Y6
G0 F4285.7 X44.374 Y63.54
M204 S500
M205 X5 Y5
G1 F1200 X44.926 Y63.255 E16.74213
G1 X45.511 Y63.043 E16.75319
G1 X46.117 Y62.908 E16.76422
G1 X46.862 Y62.85 E16.77751
G1 X57.862 Y62.85 E16.97304
G1 X58.482 Y62.89 E16.98409
G1 X59.092 Y63.009 E16.99513
G1 X59.681 Y63.206 E17.00617
G1 X60.24 Y63.476 E17.01721
G1 X60.76 Y63.816 E17.02825
G1 X61.232 Y64.22 E17.0393
G1 X61.649 Y64.682 E17.05036
G1 X62.002 Y65.192 E17.06138
G1 X62.287 Y65.744 E17.07243
G1 X62.499 Y66.329 E17.08349
G1 X62.634 Y66.935 E17.09452
G1 X62.692 Y67.68 E17.10781
G1 X62.692 Y131.68 E18.24547
G1 X62.652 Y132.3 E18.25651
G1 X62.533 Y132.91 E18.26756
G1 X62.336 Y133.499 E18.2786
G1 X62.066 Y134.058 E18.28964
G1 X61.726 Y134.578 E18.30068
G1 X61.322 Y135.05 E18.31173
G1 X60.86 Y135.467 E18.32279
G1 X60.35 Y135.82 E18.33381
G1 X59.798 Y136.105 E18.34486
G1 X59.213 Y136.317 E18.35592
G1 X58.607 Y136.452 E18.36695
G1 X57.862 Y136.51 E18.38024
G1 X46.862 Y136.51 E18.57577
G1 X46.242 Y136.47 E18.58682
G1 X45.632 Y136.351 E18.59786
G1 X45.043 Y136.154 E18.60891
G1 X44.484 Y135.884 E18.61994
G1 X43.964 Y135.544 E18.63098
G1 X43.492 Y135.14 E18.64203
G1 X43.075 Y134.678 E18.65309
G1 X42.722 Y134.168 E18.66412
G1 X42.437 Y133.616 E18.67516
G1 X42.225 Y133.031 E18.68622
G1 X42.09 Y132.425 E18.69726
G1 X42.032 Y131.68 E18.71054
G1 X42.032 Y67.68 E19.8482
G1 X42.072 Y67.06 E19.85925
G1 X42.191 Y66.45 E19.87029
G1 X42.388 Y65.861 E19.88133
G1 X42.658 Y65.302 E19.89237
G1 X42.998 Y64.782 E19.90341
G1 X43.402 Y64.31 E19.91446
G1 X43.864 Y63.893 E19.92552
G1 X44.374 Y63.54 E19.93655
M204 S625
M205 X6 Y6
G0 F4285.7 X44.272 Y64.111
M204 S500
M205 X5 Y5
G1 F1200 X44.775 Y63.795 E19.94711
G1 X45.315 Y63.55 E19.95765
G1 X45.884 Y63.38 E19.9682
G1 X46.47 Y63.287 E19.97875
G1 X46.862 Y63.27 E19.98572
G1 X57.862 Y63.27 E20.18126
G1 X58.454 Y63.31 E20.19181
G1 X59.036 Y63.429 E20.20237
G1 X59.596 Y63.625 E20.21291
G1 X60.125 Y63.895 E20.22347
G1 X60.613 Y64.233 E20.23402
G1 X61.051 Y64.634 E20.24458
G1 X61.431 Y65.09 E20.25513
G1 X61.747 Y65.593 E20.26569
G1 X61.992 Y66.133 E20.27623
G1 X62.162 Y66.702 E20.28679
G1 X62.255 Y67.288 E20.29733
G1 X62.272 Y67.68 E20.30431
G1 X62.272 Y131.68 E21.44197
G1 X62.232 Y132.272 E21.45252
G1 X62.113 Y132.854 E21.46308
G1 X61.917 Y133.414 E21.47363
G1 X61.647 Y133.943 E21.48418
G1 X61.309 Y134.431 E21.49474
G1 X60.908 Y134.869 E21.50529
G1 X60.452 Y135.249 E21.51584
G1 X59.949 Y135.565 E21.5264
G1 X59.409 Y135.81 E21.53694
G1 X58.84 Y135.98 E21.5475
G1 X58.254 Y136.073 E21.55805
G1 X57.862 Y136.09 E21.56502
G1 X46.862 Y136.09 E21.76056
G1 X46.27 Y136.05 E21.7711
G1 X45.688 Y135.931 E21.78166
G1 X45.128 Y135.735 E21.79221
G1 X44.599 Y135.465 E21.80277
G1 X44.111 Y135.127 E21.81332
G1 X43.673 Y134.726 E21.82388
G1 X43.293 Y134.27 E21.83443
G1 X42.977 Y133.767 E21.84499
G1 X42.732 Y133.227 E21.85553
G1 X42.562 Y132.658 E21.86608
G1 X42.469 Y132.072 E21.87663
G1 X42.452 Y131.68 E21.88361
G1 X42.452 Y67.68 E23.02127
G1 X42.492 Y67.088 E23.03182
G1 X42.611 Y66.506 E23.04238
G1 X42.807 Y65.946 E23.05292
G1 X43.077 Y65.417 E23.06348
G1 X43.415 Y64.929 E23.07403
G1 X43.816 Y64.491 E23.08459
G1 X44.272 Y64.111 E23.09514
M204 S625
M205 X6 Y6
G0 F4285.7 X44.677 Y64.341
M204 S500
M205 X5 Y5
G1 F1200 X45.171 Y64.066 E23.10519
G1 X45.698 Y63.864 E23.11522
G1 X46.248 Y63.738 E23.12525
G1 X46.862 Y63.69 E23.1362
G1 X57.862 Y63.69 E23.33174
G1 X58.425 Y63.73 E23.34177
G1 X58.977 Y63.849 E23.35181
G1 X59.507 Y64.045 E23.36185
G1 X60.003 Y64.313 E23.37187
G1 X60.457 Y64.649 E23.38191
G1 X60.859 Y65.046 E23.39196
G1 X61.201 Y65.495 E23.40199
G1 X61.476 Y65.989 E23.41204
G1 X61.678 Y66.516 E23.42207
G1 X61.804 Y67.066 E23.4321
G1 X61.852 Y67.68 E23.44305
G1 X61.852 Y131.68 E24.58071
G1 X61.812 Y132.243 E24.59075
G1 X61.693 Y132.795 E24.60078
G1 X61.497 Y133.325 E24.61083
G1 X61.229 Y133.821 E24.62085
G1 X60.893 Y134.275 E24.63089
G1 X60.496 Y134.677 E24.64093
G1 X60.047 Y135.019 E24.65097
G1 X59.553 Y135.294 E24.66102
G1 X59.026 Y135.496 E24.67105
G1 X58.476 Y135.622 E24.68108
G1 X57.862 Y135.67 E24.69203
G1 X46.862 Y135.67 E24.88756
G1 X46.299 Y135.63 E24.8976
G1 X45.747 Y135.511 E24.90763
G1 X45.217 Y135.315 E24.91768
G1 X44.721 Y135.047 E24.9277
G1 X44.267 Y134.711 E24.93774
G1 X43.865 Y134.314 E24.94778
G1 X43.523 Y133.865 E24.95782
G1 X43.248 Y133.371 E24.96787
G1 X43.046 Y132.844 E24.9779
G1 X42.92 Y132.294 E24.98793
G1 X42.872 Y131.68 E24.99888
G1 X42.872 Y67.68 E26.13654
G1 X42.912 Y67.117 E26.14657
G1 X43.031 Y66.565 E26.15661
G1 X43.227 Y66.035 E26.16666
G1 X43.495 Y65.539 E26.17668
G1 X43.831 Y65.085 E26.18672
G1 X44.228 Y64.683 E26.19676
G1 X44.677 Y64.341 E26.20679
M204 S625
M205 X6 Y6
G0 F4285.7 X44.638 Y64.887
M204 S500
M205 X5 Y5
G1 F1200 X45.08 Y64.587 E26.21629
G1 X45.561 Y64.355 E26.22578
G1 X46.072 Y64.199 E26.23528
G1 X46.862 Y64.11 E26.24941
G1 X57.862 Y64.11 E26.44495
G1 X58.395 Y64.15 E26.45445
G1 X58.915 Y64.269 E26.46393
G1 X59.412 Y64.464 E26.47342
G1 X59.875 Y64.731 E26.48292
G1 X60.292 Y65.065 E26.49242
G1 X60.655 Y65.456 E26.5019
G1 X60.955 Y65.898 E26.5114
G1 X61.187 Y66.379 E26.52089
G1 X61.343 Y66.89 E26.53039
G1 X61.432 Y67.68 E26.54452
G1 X61.432 Y131.68 E27.68218
G1 X61.392 Y132.213 E27.69168
G1 X61.273 Y132.733 E27.70117
G1 X61.078 Y133.23 E27.71066
G1 X60.811 Y133.693 E27.72016
G1 X60.477 Y134.11 E27.72966
G1 X60.086 Y134.473 E27.73914
G1 X59.644 Y134.773 E27.74863
G1 X59.163 Y135.005 E27.75813
G1 X58.652 Y135.161 E27.76763
G1 X57.862 Y135.25 E27.78176
G1 X46.862 Y135.25 E27.97729
G1 X46.329 Y135.21 E27.98679
G1 X45.809 Y135.091 E27.99628
G1 X45.312 Y134.896 E28.00577
G1 X44.849 Y134.629 E28.01527
G1 X44.432 Y134.295 E28.02476
G1 X44.069 Y133.904 E28.03425
G1 X43.769 Y133.462 E28.04374
G1 X43.537 Y132.981 E28.05324
G1 X43.381 Y132.47 E28.06273
G1 X43.292 Y131.68 E28.07687
G1 X43.292 Y67.68 E29.21453
G1 X43.332 Y67.147 E29.22403
G1 X43.451 Y66.627 E29.23351
G1 X43.646 Y66.13 E29.243
G1 X43.913 Y65.667 E29.2525
G1 X44.247 Y65.25 E29.262
G1 X44.638 Y64.887 E29.27148
M204 S625
M205 X6 Y6
G0 F4285.7 X45.046 Y65.106
M204 S500
M205 X5 Y5
G1 F1200 X45.478 Y64.85 E29.28041
G1 X45.945 Y64.667 E29.28933
G1 X46.434 Y64.559 E29.29823
G1 X46.862 Y64.53 E29.30585
G1 X57.862 Y64.53 E29.50139
G1 X58.362 Y64.57 E29.51031
G1 X58.849 Y64.689 E29.51922
G1 X59.312 Y64.883 E29.52814
G1 X59.737 Y65.149 E29.53705
G1 X60.115 Y65.479 E29.54597
G1 X60.436 Y65.864 E29.55488
