;START_OF_HEADER
;HEADER_VERSION:0.1
;FLAVOR:Griffin
;GENERATOR.NAME:Cura_SteamEngine
;GENERATOR.VERSION:3.3.1
;GENERATOR.BUILD_DATE:2018-04-25
;TARGET_MACHINE.NAME:Ultimaker 3
;EXTRUDER_TRAIN.0.INITIAL_TEMPERATURE:210
;EXTRUDER_TRAIN.0.MATERIAL.VOLUME_USED:9562
;EXTRUDER_TRAIN.0.MATERIAL.GUID:506c9f0d-e3aa-4bd4-b2d2-23e2425b1aa9
;EXTRUDER_TRAIN.0.NOZZLE.DIAMETER:0.4
;EXTRUDER_TRAIN.0.NOZZLE.NAME:AA 0.4
;BUILD_PLATE.TYPE:glass
;BUILD_PLATE.INITIAL_TEMPERATURE:60
;PRINT.TIME:4152
;PRINT.SIZE.MIN.X:9
;PRINT.SIZE.MIN.Y:6
;PRINT.SIZE.MIN.Z:0.27
;PRINT.SIZE.MAX.X:160.52
;PRINT.SIZE.MAX.Y:150.93
;PRINT.SIZE.MAX.Z:12.07
;END_OF_HEADER
;Generated with Cura_SteamEngine 3.3.1
T0
M82 ;absolute extrusion mode

G92 E0
M109 S210
G0 F15000 X9 Y6 Z2
G280
G1 F1500 E-6.5
;LAYER_COUNT:60
;LAYER:0
M107
M204 S625
M205 X6 Y6
G0 F4285.7 X83.442 Y68.784 Z0.27
M204 S500
M205 X5 Y5
;TYPE:SKIRT
G1 F1500 E0
G1 F1200 X83.979 Y68.269 E0.01323
G1 X84.568 Y67.814 E0.02646
G1 X85.202 Y67.425 E0.03968
G1 X85.875 Y67.106 E0.05292
G1 X86.83 Y66.794 E0.07078
G1 X96.962 Y64.275 E0.25637
G1 X97.693 Y64.134 E0.2696
G1 X98.634 Y64.07 E0.28637
G1 X140.258 Y64.07 E1.02627
G1 X141.001 Y64.11 E1.0395
G1 X141.46 Y64.175 E1.04774
G1 X145.355 Y64.861 E1.11804
G1 X145.97 Y64.588 E1.13
G1 X146.679 Y64.361 E1.14324
G1 X147.408 Y64.212 E1.15646
G1 X148.149 Y64.141 E1.1697
G1 X148.893 Y64.15 E1.18292
G1 X149.632 Y64.239 E1.19615
G1 X150.711 Y64.52 E1.21597
G1 X151.519 Y64.801 E1.23118
G1 X152.196 Y65.077 E1.24418
G1 X154.561 Y66.191 E1.29065
G1 X155.216 Y66.544 E1.30387
G1 X156.055 Y67.145 E1.32222
G1 X157.071 Y67.995 E1.34577
G1 X157.615 Y68.502 E1.35899
G1 X158.316 Y69.357 E1.37864
G1 X158.757 Y69.992 E1.39238
G1 X159.277 Y70.873 E1.41057
G1 X159.552 Y71.429 E1.42159
G1 X159.845 Y72.113 E1.43482
G1 X159.997 Y72.575 E1.44347
G1 X160.199 Y73.273 E1.45638
G1 X160.367 Y73.998 E1.46961
G1 X160.461 Y74.813 E1.4842
G1 X160.518 Y75.834 E1.50237
G1 X160.52 Y76.578 E1.5156
G1 X160.461 Y77.187 E1.52647
G1 X160.34 Y78.046 E1.54189
G1 X160.197 Y78.776 E1.55512
G1 X159.994 Y79.44 E1.56746
G1 X159.769 Y80.061 E1.5792
G1 X159.324 Y81.041 E1.59833
G1 X159.007 Y81.617 E1.61002
G1 X158.614 Y82.249 E1.62325
G1 X158.382 Y82.562 E1.63018
G1 X157.957 Y83.102 E1.64239
G1 X157.466 Y83.661 E1.65562
G1 X157.163 Y83.953 E1.6631
G1 X156.665 Y84.404 E1.67504
G1 X156.087 Y84.873 E1.68827
G1 X155.73 Y85.116 E1.69595
G1 X155.121 Y85.503 E1.70877
G1 X154.472 Y85.868 E1.72201
G1 X153.477 Y86.267 E1.74107
G1 X152.555 Y86.556 E1.75824
G1 X152.219 Y86.737 E1.76503
G1 X151.53 Y87.018 E1.77825
G1 X150.814 Y87.222 E1.79149
G1 X150.081 Y87.349 E1.80471
G1 X149.338 Y87.397 E1.81795
G1 X148.594 Y87.364 E1.83119
G1 X147.859 Y87.252 E1.8444
G1 X147.139 Y87.062 E1.85764
G1 X146.444 Y86.795 E1.87087
G1 X145.782 Y86.456 E1.88409
G1 X145.275 Y86.124 E1.89487
G1 X144.896 Y86.122 E1.9016
G1 X144.897 Y88.383 E1.9418
G1 X147.57 Y89.221 E1.99159
G1 X148.268 Y89.481 E2.00483
G1 X148.933 Y89.815 E2.01806
G1 X149.559 Y90.218 E2.03129
G1 X150.137 Y90.686 E2.04451
G1 X150.663 Y91.213 E2.05775
G1 X151.129 Y91.794 E2.07099
G1 X151.529 Y92.421 E2.08421
G1 X151.861 Y93.088 E2.09745
G1 X152.118 Y93.786 E2.11068
G1 X152.3 Y94.508 E2.12391
G1 X152.403 Y95.245 E2.13714
G1 X152.428 Y95.834 E2.14762
G1 X152.428 Y141.813 E2.96494
G1 X152.388 Y142.556 E2.97817
G1 X152.269 Y143.291 E2.9914
G1 X152.071 Y144.009 E3.00464
G1 X151.798 Y144.701 E3.01787
G1 X151.452 Y145.36 E3.0311
G1 X151.037 Y145.978 E3.04433
G1 X150.558 Y146.548 E3.05756
G1 X150.021 Y147.063 E3.07079
G1 X149.432 Y147.518 E3.08402
G1 X148.798 Y147.907 E3.09724
G1 X148.125 Y148.226 E3.11048
G1 X147.422 Y148.471 E3.12372
G1 X146.8 Y148.62 E3.13509
G1 X135.363 Y150.807 E3.34207
G1 X134.625 Y150.907 E3.35531
G1 X134.061 Y150.93 E3.36535
G1 X104.13 Y150.93 E3.8974
G1 X103.387 Y150.89 E3.91062
G1 X102.652 Y150.771 E3.92386
G1 X101.934 Y150.573 E3.9371
G1 X101.242 Y150.3 E3.95032
G1 X100.583 Y149.954 E3.96355
G1 X99.965 Y149.539 E3.97679
G1 X99.395 Y149.06 E3.99002
G1 X99.107 Y148.774 E3.99724
G1 X94.531 Y143.959 E4.11532
G1 X90.689 Y144.679 E4.1848
G1 X90.543 Y144.873 E4.18912
G1 X90.503 Y145.121 E4.19358
G1 X90.305 Y145.839 E4.20682
G1 X90.032 Y146.531 E4.22004
G1 X89.686 Y147.19 E4.23327
G1 X89.271 Y147.808 E4.24651
G1 X88.792 Y148.378 E4.25974
G1 X88.255 Y148.893 E4.27297
G1 X87.666 Y149.348 E4.2862
G1 X87.032 Y149.737 E4.29942
G1 X86.359 Y150.056 E4.31266
G1 X85.656 Y150.301 E4.32589
G1 X84.931 Y150.469 E4.33912
G1 X84.192 Y150.558 E4.35235
G1 X83.448 Y150.567 E4.36558
G1 X82.707 Y150.497 E4.37881
G1 X81.978 Y150.347 E4.39204
G1 X81.269 Y150.12 E4.40527
G1 X80.793 Y149.919 E4.41446
G1 X78.512 Y148.851 E4.45923
G1 X77.856 Y148.5 E4.47246
G1 X77.529 Y148.288 E4.47938
G1 X76.958 Y147.896 E4.4917
G1 X76.368 Y147.443 E4.50492
G1 X76.043 Y147.146 E4.51274
G1 X75.57 Y146.685 E4.52448
G1 X75.066 Y146.137 E4.53772
G1 X74.815 Y145.815 E4.54498
G1 X74.378 Y145.218 E4.55813
G1 X73.971 Y144.595 E4.57136
G1 X73.758 Y144.197 E4.57938
G1 X73.447 Y143.568 E4.59185
G1 X73.153 Y142.884 E4.60509
G1 X73.001 Y142.419 E4.61378
G1 X72.8 Y141.723 E4.62666
G1 X72.632 Y140.998 E4.63989
G1 X72.546 Y140.293 E4.65252
G1 X72.481 Y139.381 E4.66877
G1 X72.468 Y138.636 E4.68201
G1 X72.524 Y137.972 E4.69386
G1 X72.653 Y137.005 E4.7112
G1 X72.791 Y136.273 E4.72444
G1 X73.006 Y135.56 E4.73768
G1 X73.231 Y134.939 E4.74942
G1 X73.676 Y133.959 E4.76855
G1 X73.993 Y133.383 E4.78024
G1 X74.386 Y132.751 E4.79347
G1 X74.619 Y132.437 E4.80042
G1 X75.045 Y131.896 E4.81266
G1 X75.537 Y131.337 E4.8259
G1 X75.839 Y131.046 E4.83335
G1 X76.336 Y130.596 E4.84527
G1 X76.913 Y130.127 E4.85849
G1 X77.232 Y129.908 E4.86537
G1 X77.806 Y129.538 E4.87751
G1 X78.453 Y129.169 E4.89075
G1 X79.481 Y128.753 E4.91046
G1 X80.394 Y128.466 E4.92747
G1 X80.518 Y128.392 E4.93004
G1 X81.195 Y128.083 E4.94327
G1 X81.572 Y127.958 E4.95033
G1 X81.572 Y73.519 E5.91803
G1 X81.612 Y72.776 E5.93126
G1 X81.731 Y72.041 E5.9445
G1 X81.929 Y71.323 E5.95774
G1 X82.202 Y70.631 E5.97096
G1 X82.548 Y69.972 E5.98419
G1 X82.963 Y69.354 E5.99742
G1 X83.442 Y68.784 E6.01066
M204 S625
M205 X6 Y6
G0 F4285.7 X83.856 Y68.959
M204 S500
M205 X5 Y5
G1 F1200 X84.389 Y68.473 E6.02348
G1 X84.973 Y68.049 E6.03631
G1 X85.6 Y67.692 E6.04913
G1 X86.262 Y67.406 E6.06195
G1 X86.931 Y67.201 E6.07439
G1 X97.063 Y64.682 E6.25998
G1 X97.772 Y64.547 E6.27281
G1 X98.634 Y64.49 E6.28817
G1 X140.258 Y64.49 E7.02807
G1 X140.978 Y64.53 E7.04089
G1 X141.387 Y64.589 E7.04824
G1 X145.43 Y65.301 E7.12121
G1 X145.72 Y65.148 E7.12704
G1 X146.391 Y64.884 E7.13986
G1 X147.088 Y64.696 E7.15269
G1 X147.801 Y64.586 E7.16552
G1 X148.521 Y64.556 E7.17832
G1 X149.241 Y64.605 E7.19115
G1 X149.951 Y64.734 E7.20398
G1 X150.573 Y64.916 E7.2155
G1 X151.381 Y65.197 E7.23071
G1 X152.017 Y65.457 E7.24292
G1 X154.382 Y66.571 E7.28939
G1 X155.017 Y66.914 E7.30222
G1 X155.785 Y67.467 E7.31904
G1 X156.801 Y68.317 E7.34259
G1 X157.328 Y68.81 E7.35542
G1 X157.971 Y69.597 E7.37348
G1 X158.412 Y70.232 E7.38723
G1 X158.9 Y71.059 E7.4043
G1 X159.175 Y71.615 E7.41532
G1 X159.459 Y72.278 E7.42814
G1 X159.593 Y72.691 E7.43586
G1 X159.795 Y73.389 E7.44878
G1 X159.957 Y74.092 E7.4616
G1 X160.042 Y74.836 E7.47491
G1 X160.099 Y75.857 E7.49309
G1 X160.099 Y76.579 E7.50593
G1 X160.045 Y77.128 E7.51573
G1 X159.924 Y77.987 E7.53115
G1 X159.784 Y78.695 E7.54398
G1 X159.599 Y79.297 E7.55518
G1 X159.374 Y79.918 E7.56692
G1 X158.956 Y80.839 E7.5849
G1 X158.639 Y81.415 E7.59658
G1 X158.052 Y82.302 E7.61549
G1 X157.627 Y82.842 E7.62771
G1 X157.15 Y83.383 E7.64053
G1 X156.881 Y83.641 E7.64715
G1 X156.383 Y84.092 E7.6591
G1 X155.822 Y84.546 E7.67193
G1 X155.505 Y84.761 E7.67873
G1 X154.896 Y85.148 E7.69156
G1 X154.266 Y85.501 E7.7044
G1 X153.352 Y85.866 E7.72189
G1 X152.394 Y86.166 E7.73974
G1 X152.02 Y86.367 E7.74729
G1 X151.351 Y86.635 E7.7601
G1 X150.655 Y86.827 E7.77293
G1 X149.943 Y86.942 E7.78575
G1 X149.223 Y86.977 E7.79856
G1 X148.503 Y86.932 E7.81139
G1 X147.792 Y86.807 E7.82422
G1 X147.1 Y86.605 E7.83703
G1 X146.434 Y86.328 E7.84986
G1 X145.803 Y85.978 E7.86268
G1 X145.417 Y85.705 E7.87109
G1 X144.476 Y85.699 E7.88782
G1 X144.477 Y88.692 E7.94102
G1 X147.445 Y89.622 E7.99631
G1 X148.12 Y89.875 E8.00912
G1 X148.763 Y90.202 E8.02194
G1 X149.366 Y90.598 E8.03477
G1 X149.922 Y91.058 E8.0476
G1 X150.423 Y91.577 E8.06042
G1 X150.864 Y92.148 E8.07324
G1 X151.239 Y92.764 E8.08606
G1 X151.543 Y93.418 E8.09888
G1 X151.773 Y94.102 E8.11171
G1 X151.926 Y94.807 E8.12453
G1 X152.008 Y95.834 E8.14285
G1 X152.008 Y141.813 E8.96017
G1 X151.968 Y142.533 E8.97299
G1 X151.849 Y143.245 E8.98582
G1 X151.651 Y143.939 E8.99865
G1 X151.378 Y144.606 E9.01146
G1 X151.033 Y145.24 E9.02429
G1 X150.62 Y145.831 E9.03711
G1 X150.144 Y146.373 E9.04993
G1 X149.611 Y146.859 E9.06275
G1 X149.027 Y147.283 E9.07558
G1 X148.4 Y147.64 E9.08841
G1 X147.738 Y147.926 E9.10123
G1 X146.721 Y148.207 E9.11998
G1 X135.284 Y150.394 E9.32697
G1 X134.569 Y150.49 E9.33979
G1 X134.061 Y150.51 E9.34883
G1 X104.13 Y150.51 E9.88088
G1 X103.41 Y150.47 E9.8937
G1 X102.698 Y150.351 E9.90653
G1 X102.004 Y150.153 E9.91936
G1 X101.337 Y149.88 E9.93217
G1 X100.703 Y149.535 E9.945
G1 X100.112 Y149.122 E9.95782
G1 X99.411 Y148.485 E9.97466
G1 X94.678 Y143.505 E10.09678
G1 X90.452 Y144.297 E10.17321
G1 X90.145 Y144.703 E10.18226
G1 X90.083 Y145.075 E10.18897
G1 X89.885 Y145.769 E10.20179
G1 X89.612 Y146.436 E10.21461
G1 X89.267 Y147.07 E10.22744
G1 X88.854 Y147.661 E10.24025
G1 X88.378 Y148.203 E10.25307
G1 X87.845 Y148.689 E10.2659
G1 X87.261 Y149.113 E10.27873
G1 X86.634 Y149.47 E10.29155
G1 X85.972 Y149.756 E10.30437
G1 X85.282 Y149.966 E10.31719
G1 X84.573 Y150.098 E10.33001
G1 X83.853 Y150.152 E10.34285
G1 X83.132 Y150.125 E10.35567
G1 X82.419 Y150.019 E10.36848
G1 X81.721 Y149.835 E10.38132
G1 X80.972 Y149.539 E10.39563
G1 X78.691 Y148.471 E10.4404
G1 X77.766 Y147.942 E10.45935
G1 X77.195 Y147.55 E10.47166
G1 X76.624 Y147.109 E10.48448
G1 X76.336 Y146.845 E10.49143
G1 X75.863 Y146.384 E10.50317
G1 X75.375 Y145.853 E10.51599
G1 X75.154 Y145.567 E10.52241
G1 X74.717 Y144.97 E10.53556
G1 X74.324 Y144.365 E10.54839
G1 X74.134 Y144.01 E10.55555
G1 X73.823 Y143.381 E10.56802
G1 X73.54 Y142.718 E10.58083
G1 X73.405 Y142.302 E10.58861
G1 X73.204 Y141.606 E10.60149
G1 X73.042 Y140.903 E10.61431
G1 X72.964 Y140.263 E10.62577
G1 X72.899 Y139.351 E10.64202
G1 X72.888 Y138.63 E10.65484
G1 X72.94 Y138.027 E10.6656
G1 X73.069 Y137.06 E10.68294
G1 X73.204 Y136.352 E10.69575
G1 X73.401 Y135.703 E10.70781
G1 X73.626 Y135.082 E10.71955
G1 X74.044 Y134.161 E10.73753
G1 X74.361 Y133.585 E10.74922
G1 X74.949 Y132.697 E10.76815
G1 X75.375 Y132.156 E10.78039
G1 X75.852 Y131.614 E10.79322
G1 X76.121 Y131.357 E10.79984
G1 X76.618 Y130.907 E10.81175
G1 X77.46 Y130.261 E10.83062
G1 X78.034 Y129.891 E10.84276
G1 X78.661 Y129.535 E10.85558
G1 X79.607 Y129.153 E10.87371
G1 X80.571 Y128.849 E10.89168
G1 X80.733 Y128.754 E10.89502
G1 X81.39 Y128.458 E10.90783
G1 X81.992 Y128.263 E10.91908
G1 X81.992 Y73.519 E11.8922
G1 X82.032 Y72.799 E11.90502
G1 X82.151 Y72.087 E11.91785
G1 X82.349 Y71.393 E11.93068
G1 X82.622 Y70.726 E11.94349
G1 X82.967 Y70.092 E11.95632
G1 X83.38 Y69.501 E11.96914
G1 X83.856 Y68.959 E11.98196
M204 S625
M205 X6 Y6
G0 F4285.7 X84.27 Y69.14
M204 S500
M205 X5 Y5
G1 F1200 X84.798 Y68.685 E11.99435
G1 X85.375 Y68.293 E12.00675
G1 X85.994 Y67.97 E12.01916
G1 X86.645 Y67.719 E12.03157
G1 X87.033 Y67.609 E12.03874
G1 X97.165 Y65.09 E12.22433
G1 X97.85 Y64.961 E12.23672
G1 X98.634 Y64.91 E12.25068
G1 X140.258 Y64.91 E12.99059
G1 X140.955 Y64.95 E13.003
G1 X141.314 Y65.002 E13.00945
G1 X145.489 Y65.737 E13.0848
G1 X145.517 Y65.72 E13.08539
G1 X146.147 Y65.421 E13.09778
G1 X146.808 Y65.196 E13.11019
G1 X147.49 Y65.049 E13.1226
G1 X148.184 Y64.98 E13.13499
G1 X148.882 Y64.991 E13.1474
G1 X149.574 Y65.082 E13.15981
G1 X150.435 Y65.313 E13.17566
G1 X151.243 Y65.594 E13.19086
G1 X151.838 Y65.837 E13.20229
G1 X154.203 Y66.951 E13.24876
G1 X154.816 Y67.284 E13.26116
G1 X155.516 Y67.789 E13.2765
G1 X156.532 Y68.639 E13.30005
G1 X157.04 Y69.117 E13.31245
G1 X157.626 Y69.836 E13.32894
G1 X158.067 Y70.471 E13.34268
G1 X158.524 Y71.245 E13.35866
G1 X158.799 Y71.801 E13.36968
G1 X159.072 Y72.443 E13.38208
G1 X159.19 Y72.808 E13.3889
G1 X159.392 Y73.506 E13.40182
G1 X159.547 Y74.186 E13.41422
G1 X159.623 Y74.86 E13.42627
G1 X159.68 Y75.881 E13.44445
G1 X159.678 Y76.578 E13.45684
G1 X159.629 Y77.069 E13.46561
G1 X159.508 Y77.928 E13.48103
G1 X159.372 Y78.613 E13.49345
G1 X159.204 Y79.154 E13.50352
G1 X158.979 Y79.775 E13.51526
G1 X158.588 Y80.636 E13.53207
G1 X158.271 Y81.212 E13.54376
G1 X157.722 Y82.042 E13.56144
G1 X157.297 Y82.582 E13.57366
G1 X156.599 Y83.33 E13.59185
G1 X156.101 Y83.781 E13.60379
G1 X155.279 Y84.407 E13.62216
G1 X154.67 Y84.794 E13.63498
G1 X154.061 Y85.134 E13.64738
G1 X153.226 Y85.465 E13.66335
G1 X152.234 Y85.776 E13.68183
G1 X151.822 Y85.996 E13.69013
G1 X151.173 Y86.251 E13.70253
G1 X150.499 Y86.431 E13.71493
G1 X149.808 Y86.533 E13.72734
G1 X149.111 Y86.555 E13.73974
G1 X148.416 Y86.497 E13.75214
G1 X147.732 Y86.36 E13.76454
G1 X147.068 Y86.146 E13.77694
G1 X146.433 Y85.857 E13.78934
G1 X145.835 Y85.497 E13.80175
G1 X145.561 Y85.286 E13.80789
G1 X144.056 Y85.276 E13.83465
G1 X144.057 Y89.001 E13.90086
G1 X147.319 Y90.023 E13.96163
G1 X147.972 Y90.269 E13.97403
G1 X148.592 Y90.589 E13.98643
G1 X149.172 Y90.977 E13.99884
G1 X149.703 Y91.429 E14.01123
G1 X150.179 Y91.939 E14.02363
G1 X150.594 Y92.5 E14.03604
G1 X150.942 Y93.105 E14.04845
G1 X151.219 Y93.745 E14.06084
G1 X151.42 Y94.413 E14.07324
G1 X151.544 Y95.1 E14.08565
G1 X151.588 Y95.834 E14.09872
G1 X151.588 Y141.813 E14.91604
G1 X151.548 Y142.51 E14.92846
G1 X151.429 Y143.197 E14.94085
G1 X151.231 Y143.866 E14.95325
G1 X150.959 Y144.509 E14.96566
G1 X150.615 Y145.115 E14.97805
G1 X150.203 Y145.679 E14.99046
G1 X149.73 Y146.192 E15.00287
G1 X149.202 Y146.647 E15.01526
G1 X148.625 Y147.039 E15.02766
G1 X148.006 Y147.362 E15.04007
G1 X147.355 Y147.613 E15.05247
G1 X146.642 Y147.795 E15.06555
G1 X135.205 Y149.982 E15.27254
G1 X134.513 Y150.073 E15.28495
G1 X134.061 Y150.09 E15.29299
G1 X104.13 Y150.09 E15.82504
G1 X103.433 Y150.05 E15.83745
G1 X102.746 Y149.931 E15.84984
G1 X102.077 Y149.733 E15.86225
G1 X101.434 Y149.461 E15.87466
G1 X100.828 Y149.117 E15.88704
G1 X100.264 Y148.705 E15.89946
G1 X99.716 Y148.195 E15.91277
G1 X94.826 Y143.05 E16.03894
G1 X90.205 Y143.916 E16.12251
G1 X90.13 Y144.027 E16.1249
G1 X89.749 Y144.53 E16.13611
G1 X89.663 Y145.027 E16.14508
G1 X89.465 Y145.696 E16.15748
G1 X89.193 Y146.339 E16.16989
G1 X88.849 Y146.945 E16.18228
G1 X88.437 Y147.509 E16.19469
G1 X87.964 Y148.022 E16.2071
G1 X87.436 Y148.477 E16.21949
G1 X86.859 Y148.869 E16.23189
G1 X86.24 Y149.192 E16.2443
G1 X85.589 Y149.443 E16.2567
G1 X84.913 Y149.617 E16.26911
G1 X84.222 Y149.713 E16.28151
G1 X83.525 Y149.729 E16.2939
G1 X82.83 Y149.666 E16.30631
G1 X82.147 Y149.523 E16.31871
G1 X81.485 Y149.303 E16.33111
G1 X81.15 Y149.158 E16.3376
G1 X78.869 Y148.09 E16.38237
G1 X78.004 Y147.596 E16.40008
G1 X77.433 Y147.204 E16.41239
G1 X76.629 Y146.544 E16.43088
G1 X76.156 Y146.083 E16.44262
G1 X75.493 Y145.319 E16.46061
G1 X75.056 Y144.722 E16.47376
G1 X74.677 Y144.136 E16.48616
G1 X74.511 Y143.824 E16.49244
G1 X74.2 Y143.195 E16.50492
G1 X73.927 Y142.553 E16.51732
G1 X73.808 Y142.186 E16.52418
G1 X73.607 Y141.49 E16.53705
G1 X73.452 Y140.809 E16.54947
G1 X73.383 Y140.233 E16.55978
G1 X73.318 Y139.321 E16.57603
G1 X73.309 Y138.623 E16.58844
G1 X73.356 Y138.083 E16.59808
G1 X73.485 Y137.116 E16.61542
G1 X73.617 Y136.431 E16.62782
G1 X73.796 Y135.846 E16.6387
G1 X74.021 Y135.225 E16.65044
G1 X74.412 Y134.364 E16.66725
G1 X74.729 Y133.788 E16.67893
G1 X75.279 Y132.956 E16.69666
G1 X75.705 Y132.415 E16.7089
G1 X76.402 Y131.669 E16.72705
G1 X76.899 Y131.219 E16.73897
G1 X77.687 Y130.614 E16.75663
G1 X78.261 Y130.244 E16.76877
G1 X78.869 Y129.9 E16.78119
G1 X79.733 Y129.554 E16.79773
G1 X80.742 Y129.236 E16.81654
G1 X80.947 Y129.116 E16.82076
G1 X81.584 Y128.833 E16.83315
G1 X82.25 Y128.625 E16.84555
G1 X82.412 Y128.594 E16.84848
